X:1
T:Is Your All on the Altar?
T:Is Your All on the Altar?
T:Elisha Albright Hoffman
T:Elisha Albright Hoffman, 1905
T:Public Domain Courtesy of the Cyber Hymnal™
T:Public Domain Courtesy of the Cyber Hymnal™
C:Elisha Albright Hoffman
Z:Public Domain
Z:Courtesy of the Cyber Hymnal™
%%score ( 1 2 ) ( 3 4 )
L:1/8
M:3/4
K:F
V:1 treble 
V:2 treble 
V:3 bass 
V:4 bass 
V:1
 F[FG] | [FA]3 [FA] [FA]2 | F4 [FA][GB] | [Ac]3 [Ac] [Ac]2 | [FA]4 FF | [EA]3 [EG] C2 | %6
w: 1.~You have|longed for sweet|peace, And for|faith to in-|crease, And have|ear- nest- ly,|
w: 2.~Would you|walk with the|Lord, In the|light of His|Word, And have|peace and con-|
w: 3.~O we|ne- ver can|know What the|Lord will be-|stow Of the|bless- ings for|
w: 4.~Who can|tell all the|love He will|send from a-|bove, And how|hap- py our|
 [EA]3 [EG] C2 | [CF]6- | [CF]4 F[FG] | [FA]3 [FA] [FA]2 | F4 [FA][GB] | [Ac]3 [Ac] [Ac]2 | %12
w: fer- vent- ly|prayed;|* But you|can- not have|rest, Or be|per- fect- ly|
w: tent- ment al-|way?|* You must|do His sweet|will, To be|free from all|
w: which we have|prayed,|* Till our|bo- dy and|soul He doth|ful- ly con-|
w: hearts will be|made,|* Of the|fel- low- ship|sweet We shall|share at His|
 [FA]4 FF | [EA]3 [EG] C2 | [EA]3 [EG] C2 | [CF]6- | [CF]4!fine! ||"^Refrain" [Fc][Fc] | %18
w: blest, Un- til|all on the|al- tar is|laid|||
w: ill, On the|al- tar your|all you must|lay.||Is your|
w: trol, And our|all on the|al- tar is|laid.|||
w: feet, When our|all on the|al- tar is|laid.|||
 [Fd]3 [Fd] [Fd]2 | [Fd]2 [Fe]2 [Fd]2 | [Fd]2 [Fc]2 [FA]2 | [Fc]4 [Fc]2 | [Fd]3 [Fd] [Fd]2 | %23
w: |||||
w: all on the|al- tar of|sac- ri- fice|laid? Your|heart does the|
w: |||||
w: |||||
 [Gd]2 [Ge]2 [Gf]2 | e4 (z2 x2 | [Bc]4) F[FG] [FA]3 [FA] [FA]2 | F4 [FA][GB] | [Ac]3 [Ac] [Ac]2 | %28
w: |||||
w: Spir- it con-|trol?|* You can on- ly be|blest, And have|peace and sweet|
w: |||||
w: |||||
 [FA]4 FF | [EA]3 [EG] C2 | [EA]3 [EG] C2 | [CF]6- | [CF]4 |] %33
w: |||||
w: rest, As you|yield Him your|bo- dy and|soul.||
w: |||||
w: |||||
V:2
 F x | x6 | F4 x2 | x6 | x4 FF | x4 C2 | x4 C2 | x6 | x4 F x | x6 | F4 x2 | x6 | x4 FF | x4 C2 | %14
 x4 C2 | x6 | x4 || x2 | x6 | x6 | x6 | x6 | x6 | x6 | G2 B4 d2 | x4 F x7 | F4 x2 | x6 | x4 FF | %29
 x4 C2 | x4 C2 | x6 | x4 |] %33
V:3
 [F,A,][F,B,] | [F,C]3 [F,C] [F,C]2 | [F,A,]4 [F,C][F,C] | [F,F]3 [F,F] [F,F]2 | %4
 [F,C]4 [F,A,][F,A,] | [C,C]3 [C,B,] C,2 | [C,C]3 [C,B,] [C,B,]2 | [F,A,]6- | %8
 [F,A,]4 [F,A,][F,B,] | [F,C]3 [F,C] [F,C]2 | [F,A,]4 [F,C][F,C] | [F,F]3 [F,F] [F,F]2 | %12
 [F,C]4 [F,A,][F,A,] | [C,C]3 [C,B,] C,2 | [C,C]3 [C,B,] [C,B,]2 | [F,A,]6- | [F,A,]4 || %17
 [F,A,][F,A,] | [B,,B,]3 [B,,B,] [B,,B,]2 | [B,,B,]2 [B,,C]2 [B,,B,]2 | [F,B,]2 [F,A,]2 [F,C]2 | %21
 [F,A,]4 [F,A,]2 | [B,,B,]3 [B,,B,] [B,,B,]2 | [G,,=B,]2 [G,,B,]2 [G,,B,]2 | C4 D2 x2 | %25
 [C,E]4 [F,A,][F,B,] [F,C]3 [F,C] [F,C]2 | [F,A,]4 [F,C][F,C] | [F,F]3 [F,F] [F,F]2 | %28
 [F,C]4 [F,A,][F,A,] | [C,C]3 [C,B,] C,2 | [C,C]3 [C,B,] [C,B,]2 | [F,A,]6- | [F,A,]4 |] %33
V:4
 x2 | x6 | x6 | x6 | x6 | x4 C,2 | x6 | x6 | x6 | x6 | x6 | x6 | x6 | x4 C,2 | x6 | x6 | x4 || x2 | %18
 x6 | x6 | x6 | x6 | x6 | x6 | C,6- x2 | x12 | x6 | x6 | x6 | x4 C,2 | x6 | x6 | x4 |] %33

